X: 42503
T: What Pain I've Endured Since Last Year
R: slip jig
M: 9/8
K: Eminor
g/f/|eBB B>AG F<DF|E2 F G>FG B2 g/f/|eBB B>AG F<DF|E>Fd B>AF E2|
eBB B>AG F<DF|E2 F G>FG B2 g/f/|eBB B>AG F<DF|E>Fd B>AF E2||
B|BEE BGG FDD|BEE BGG F2A|BEE BGG F>ED|E>DB B>^AB e2 d/c/|
BEE BGG FDD|BEE BGG F2A|B>EF G>AG F>ED|E>DB B>^AB E2|
B|Bee Bgg fdd|Bee Bgg f2 A|Bee Bgg f>ed|e>dB B>^AB/^d/ e2 d/c/|
Bee Bgg fdd|Bee Bgg f2 A|B>ef g>ag f>ed|e>dB B>^A/B/^d/ e2||

